src/assets/tokens/weETH.svg

<svg fill="none" height="52" viewBox="0 0 52 52" width="52" xmlns="http://www.w3.org/2000/svg" xmlns:xlink="http://www.w3.org/1999/xlink"><linearGradient id="a" gradientUnits="userSpaceOnUse" x1="3.55651" x2="48.0024" y1="33.6872" y2="17.5077"><stop offset="0" stop-color="#29bcfa"/><stop offset=".43" stop-color="#6464e4"/><stop offset="1" stop-color="#b45afa"/></linearGradient><path d="m51.3038 28.834-1.9413-7.5674c-.0556-.2225-.2349-.3956-.4575-.4513l-7.4993-1.8486c-.0557-.0123-.1175-.0185-.1732-.0185-.1792-.0185-.3647.0371-.5007.1731l-12.6556 12.6556-1.6754-6.5411c-.0557-.2226-.235-.3957-.4575-.4513l-6.4422-1.5889 12.6494-12.6494c.0742-.0742.1175-.1669.1484-.2597.0556-.1236.0742-.2658.0371-.40182l-1.9413-7.56737c-.0557-.22257-.235-.39568-.4575-.45132l-7.4994-1.8485611c-.1484-.0370949-.2968-.01236499-.4266.0494599h-.0062c-.0371.0185474-.068.0432782-.1051.0680072-.0309.02473-.0742.037095-.0989.068008l-21.58921 21.576896s-.037094.0618-.061823.0927c-.136015.1608-.1854753.371-.1236505.575l2.0958635 7.3139c.06182.2102.22257.3709.42659.4266l7.0233 2.0154 2.01553 7.0172c.0618.2102.2225.3709.4265.4266l7.0481 2.0216 2.0216 7.0481c.0619.2102.2226.3709.4266.4266l7.3448 2.1082c.0557.0185.1175.0247.1731.0247.0124 0 .0248-.0062.0433-.0062h.0124c.1607 0 .3215-.0618.4451-.1854l21.5954-21.5955c.0742-.0742.1175-.1669.1484-.2596.0556-.1237.0742-.2659.0371-.4019zm-9.6818 8.3896-1.5765-6.1515 3.4931-3.487 6.0032 1.7249-7.9136 7.9198zm-12.2474 12.2475-1.5766-6.1515 6.3185-6.3185 6.0032 1.7249zm4.8717-14.3681-1.5085-5.2551 5.4221 1.3354-3.9136 3.9136zm4.7729-3.0047 1.3849 5.3974-5.2737-1.5148 3.8888-3.8887zm.1793-1.9474-6.1454-1.5147 7.8951-7.8951 1.7063 5.9538zm-7.6724.0061 1.7063 5.9538-6.2876 6.2876-6.1453-1.5147zm16.7174-8.2288 1.5765 6.1515-5.9599-1.7125-1.7064-5.9414zm-28.3714 18.0404-1.5766-6.1515 2.2752-2.2752 6.0032 1.7249zm.8284-10.3247-1.5085-5.2551 5.422 1.3354-3.9135 3.9135zm6.1578 2.3988-5.2737-1.5147 3.8888-3.8888 1.3849 5.3973zm-7.1655-1.3849-2.2443 2.2443-6.1453-1.5147 6.6832-6.6833zm-7.0728-19.5181 1.7064 5.9538-6.34323 6.3432-6.14539-1.5147zm9.3665-9.36645 1.7064 5.95374-3.4004 3.40041-6.1454-1.51475zm.7295 16.42685-1.5765-6.1454 3.4374-3.43743 6.0032 1.71873zm-7.3757-2.1144-1.5085-5.2551 5.422 1.3354-3.9135 3.9135zm4.7729-3.0047 1.3849 5.3973-5.2675-1.5147 3.8888-3.8888zm-4.8965 4.8965 6.0032 1.7188-10.8008 10.8008-1.57657-6.1454zm14.0651-15.00484 1.5765 6.15157-5.9599-1.71255-1.7063-5.94137zm-27.75314 20.16724 5.42204 1.3354-3.91351 3.9136-1.50853-5.2552zm2.39262 6.1392 3.88878-3.8888 1.38487 5.3974-5.26747-1.5147zm8.77292 9.2676-1.7063-5.9414 6.0897 1.5024 1.5765 6.1515zm7.7961 3.5549 5.4221 1.3354-3.9135 3.9135-1.5086-5.2551zm2.3926 6.1392 3.8888-3.8888 1.3849 5.3973-5.2737-1.5147z" fill="url(#a)"/></svg>

<svg width="52" height="52" viewBox="0 0 52 52" fill="none" xmlns="http://www.w3.org/2000/svg">
<path d="M51.3038 28.834L49.3625 21.2666C49.3069 21.0441 49.1276 20.871 48.905 20.8153L41.4057 18.9667C41.35 18.9544 41.2882 18.9482 41.2325 18.9482C41.0533 18.9297 40.8678 18.9853 40.7318 19.1213L28.0762 31.7769L26.4008 25.2358C26.3451 25.0132 26.1658 24.8401 25.9433 24.7845L19.5011 23.1956L32.1505 10.5462C32.2247 10.472 32.268 10.3793 32.2989 10.2865C32.3545 10.1629 32.3731 10.0207 32.336 9.88468L30.3947 2.31731C30.339 2.09474 30.1597 1.92163 29.9372 1.86599L22.4378 0.0174289C22.2894 -0.019666 22.141 0.00506391 22.0112 0.0668888H22.005C21.9679 0.0854362 21.937 0.110167 21.8999 0.134896C21.869 0.159626 21.8257 0.171991 21.801 0.202904L0.21179 21.7798C0.21179 21.7798 0.174696 21.8416 0.149967 21.8725C0.013952 22.0333 -0.0355083 22.2435 0.0263165 22.4475L2.12218 29.7614C2.184 29.9716 2.34475 30.1323 2.54877 30.188L9.57207 32.2034L11.5876 39.2206C11.6494 39.4308 11.8101 39.5915 12.0141 39.6472L19.0622 41.6688L21.0838 48.7169C21.1457 48.9271 21.3064 49.0878 21.5104 49.1435L28.8552 51.2517C28.9109 51.2702 28.9727 51.2764 29.0283 51.2764C29.0407 51.2764 29.0531 51.2702 29.0716 51.2702C29.0716 51.2702 29.0778 51.2702 29.084 51.2702C29.2447 51.2702 29.4055 51.2084 29.5291 51.0848L51.1245 29.4893C51.1987 29.4151 51.242 29.3224 51.2729 29.2297C51.3285 29.106 51.3471 28.9638 51.31 28.8278L51.3038 28.834ZM41.622 37.2236L40.0455 31.0721L43.5386 27.5851L49.5418 29.31L41.6282 37.2298L41.622 37.2236ZM29.3746 49.4711L27.798 43.3196L34.1165 37.0011L40.1197 38.726L29.3746 49.4711ZM34.2463 35.103L32.7378 29.8479L38.1599 31.1833L34.2463 35.0969V35.103ZM39.0192 32.0983L40.4041 37.4957L35.1304 35.9809L39.0192 32.0922V32.0983ZM39.1985 30.1509L33.0531 28.6362L40.9482 20.7411L42.6545 26.6949L39.1985 30.1509ZM31.5261 30.157L33.2324 36.1108L26.9448 42.3984L20.7995 40.8837L31.5261 30.157ZM48.2435 21.9282L49.82 28.0797L43.8601 26.3672L42.1537 20.4258L48.2435 21.9282ZM19.8721 39.9686L18.2955 33.8171L20.5707 31.5419L26.5739 33.2668L19.8721 39.9686ZM20.7005 29.6439L19.192 24.3888L24.614 25.7242L20.7005 29.6377V29.6439ZM26.8583 32.0427L21.5846 30.528L25.4734 26.6392L26.8583 32.0365V32.0427ZM19.6928 30.6578L17.4485 32.9021L11.3032 31.3874L17.9864 24.7041L19.6928 30.6578ZM12.62 11.1397L14.3264 17.0935L7.98317 23.4367L1.83778 21.922L12.62 11.1397ZM21.9865 1.77325L23.6929 7.72699L20.2925 11.1274L14.1471 9.61265L21.9865 1.77325ZM22.716 18.2001L21.1395 12.0547L24.5769 8.61727L30.5801 10.336L22.716 18.2001ZM15.3403 16.0857L13.8318 10.8306L19.2538 12.166L15.3403 16.0795V16.0857ZM20.1132 13.081L21.4981 18.4783L16.2306 16.9636L20.1194 13.0748L20.1132 13.081ZM15.2167 17.9775L21.2199 19.6963L10.4191 30.4971L8.84253 24.3517L15.2167 17.9775ZM29.2818 2.97266L30.8583 9.12423L24.8984 7.41168L23.1921 1.47031L29.2818 2.97266ZM1.52866 23.1399L6.9507 24.4753L3.03719 28.3889L1.52866 23.1337V23.1399ZM3.92128 29.2791L7.81006 25.3903L9.19493 30.7877L3.92746 29.273L3.92128 29.2791ZM12.6942 38.5467L10.9879 32.6053L17.0776 34.1077L18.6541 40.2592L12.6942 38.5467ZM20.4903 42.1016L25.9124 43.437L21.9989 47.3505L20.4903 42.0954V42.1016ZM22.8829 48.2408L26.7717 44.352L28.1566 49.7493L22.8829 48.2346V48.2408Z" fill="url(#paint0_linear_1668_24237)"/>
<defs>
<linearGradient id="paint0_linear_1668_24237" x1="3.55651" y1="33.6872" x2="48.0024" y2="17.5077" gradientUnits="userSpaceOnUse">
<stop stop-color="#29BCFA"/>
<stop offset="0.43" stop-color="#6464E4"/>
<stop offset="1" stop-color="#B45AFA"/>
</linearGradient>
</defs>
</svg>
